apps/spreadsheeteditor/main/resources/img/toolbar/2.5x/big/btn-import-data.svg

<svg width="28" height="28" viewBox="0 0 28 28" fill="none" xmlns="http://www.w3.org/2000/svg">
<path fill-rule="evenodd" clip-rule="evenodd" d="M21.5 11.2071L19.1464 8.85355L19.8535 8.14645L21 9.29289V7.5C21 7.22386 20.7761 7 20.5 7L18 7V6L20.5 6C21.3284 6 22 6.67157 22 7.5L22 9.29289L23.1464 8.14645L23.8535 8.85355L21.5 11.2071ZM16 7.00008H5L5 21.0001H10V22.0001H5C4.44772 22.0001 4 21.5524 4 21.0001V7.00008C4 6.44779 4.44772 6.00008 5 6.00008H16C16.5523 6.00008 17 6.44779 17 7.00008V11.0001H16V7.00008ZM7 9.00008H14V10.0001H7V9.00008ZM7 12.0001H10V13.0001H7V12.0001ZM10 15.0001H7V16.0001H10V15.0001ZM7 18.0001H10V19.0001H7V18.0001ZM24 13.0001V14.0001V22.0001C24 22.5524 23.5523 23.0001 23 23.0001H22H21H17H16H12C11.4477 23.0001 11 22.5524 11 22.0001V14.0001V13.0001C11 12.4478 11.4477 12.0001 12 12.0001H23C23.5523 12.0001 24 12.4478 24 13.0001ZM23 22.0001H18V20.0001H23V22.0001ZM18 17.0001V19.0001H23V17.0001H18ZM12 17.0001H17V19.0001H12V17.0001ZM17 22.0001H12V20.0001H17V22.0001ZM23 16.0001H18V14.0001H23V16.0001ZM17 16.0001V14.0001H12V16.0001H17Z" fill="black"/>
</svg>

<svg xmlns="http://www.w3.org/2000/svg" width="28" height="28" fill="none"><path fill="#000" d="M23 12a1 1 0 0 1 1 1v9a1 1 0 0 1-1 1H12a1 1 0 0 1-1-1v-9a1 1 0 0 1 1-1h11ZM12 22h5v-2h-5v2Zm6 0h5v-2h-5v2Zm-6-3h5v-2h-5v2Zm6-2v2h5v-2h-5Zm-6-3v2h5v-2h-5Zm6 2h5v-2h-5v2Z"/><path fill="#000" d="M16 6a1 1 0 0 1 1 1v4h-1V7H5v14h5v1H5a1 1 0 0 1-1-1V7a1 1 0 0 1 1-1h11Z"/><path fill="#000" d="M10 19H7v-1h3v1Zm0-3H7v-1h3v1Zm0-3H7v-1h3v1Zm10.5-7A1.5 1.5 0 0 1 22 7.5v1.793l1.146-1.147.707.708-2.353 2.353-2.354-2.353.707-.708L21 9.293V7.5a.5.5 0 0 0-.5-.5H18V6h2.5ZM14 10H7V9h7v1Z"/></svg>
